extra/images/fields/field-speed-default-00.svg

<?xml version="1.0" encoding="UTF-8" standalone="no"?>
<!-- Created with Inkscape (http://www.inkscape.org/) -->

<svg
   xmlns:dc="http://purl.org/dc/elements/1.1/"
   xmlns:cc="http://creativecommons.org/ns#"
   xmlns:rdf="http://www.w3.org/1999/02/22-rdf-syntax-ns#"
   xmlns:svg="http://www.w3.org/2000/svg"
   xmlns="http://www.w3.org/2000/svg"
   xmlns:sodipodi="http://sodipodi.sourceforge.net/DTD/sodipodi-0.dtd"
   xmlns:inkscape="http://www.inkscape.org/namespaces/inkscape"
   width="32px"
   height="32px"
   id="svg3505"
   sodipodi:version="0.32"
   inkscape:version="0.48.5 r10040"
   sodipodi:docname="field-speed-default-00.svg"
   inkscape:output_extension="org.inkscape.output.svg.inkscape"
   version="1.1">
  <defs
     id="defs3507">
    <inkscape:perspective
       sodipodi:type="inkscape:persp3d"
       inkscape:vp_x="0 : 16 : 1"
       inkscape:vp_y="0 : 1000 : 0"
       inkscape:vp_z="32 : 16 : 1"
       inkscape:persp3d-origin="16 : 10.666667 : 1"
       id="perspective3513" />
    <inkscape:perspective
       id="perspective4690"
       inkscape:persp3d-origin="372.04724 : 350.78739 : 1"
       inkscape:vp_z="744.09448 : 526.18109 : 1"
       inkscape:vp_y="0 : 1000 : 0"
       inkscape:vp_x="0 : 526.18109 : 1"
       sodipodi:type="inkscape:persp3d" />
    <inkscape:perspective
       id="perspective2415"
       inkscape:persp3d-origin="372.04724 : 350.78739 : 1"
       inkscape:vp_z="744.09448 : 526.18109 : 1"
       inkscape:vp_y="0 : 1000 : 0"
       inkscape:vp_x="0 : 526.18109 : 1"
       sodipodi:type="inkscape:persp3d" />
    <inkscape:perspective
       id="perspective5551"
       inkscape:persp3d-origin="372.04724 : 350.78739 : 1"
       inkscape:vp_z="744.09448 : 526.18109 : 1"
       inkscape:vp_y="0 : 1000 : 0"
       inkscape:vp_x="0 : 526.18109 : 1"
       sodipodi:type="inkscape:persp3d" />
    <inkscape:perspective
       id="perspective5594"
       inkscape:persp3d-origin="372.04724 : 350.78739 : 1"
       inkscape:vp_z="744.09448 : 526.18109 : 1"
       inkscape:vp_y="0 : 1000 : 0"
       inkscape:vp_x="0 : 526.18109 : 1"
       sodipodi:type="inkscape:persp3d" />
  </defs>
  <sodipodi:namedview
     id="base"
     pagecolor="#ffffff"
     bordercolor="#666666"
     borderopacity="1.0"
     inkscape:pageopacity="0.0"
     inkscape:pageshadow="2"
     inkscape:zoom="16.375"
     inkscape:cx="16"
     inkscape:cy="16"
     inkscape:current-layer="layer1"
     showgrid="true"
     inkscape:grid-bbox="true"
     inkscape:document-units="px"
     objecttolerance="4"
     gridtolerance="4"
     guidetolerance="4"
     inkscape:window-width="1024"
     inkscape:window-height="741"
     inkscape:window-x="0"
     inkscape:window-y="2"
     inkscape:object-paths="true"
     inkscape:object-nodes="true"
     inkscape:snap-bbox="true"
     inkscape:snap-guide="true"
     showguides="true"
     inkscape:guide-bbox="true"
     inkscape:window-maximized="1">
    <inkscape:grid
       type="xygrid"
       id="grid3515"
       units="px"
       visible="true"
       enabled="true"
       spacingx="1px"
       spacingy="1px" />
    <sodipodi:guide
       orientation="1,0"
       position="15.5,14.451495"
       id="guide3315" />
    <sodipodi:guide
       orientation="1,0"
       position="16.5,14.18633"
       id="guide3317" />
  </sodipodi:namedview>
  <metadata
     id="metadata3510">
    <rdf:RDF>
      <cc:Work
         rdf:about="">
        <dc:format>image/svg+xml</dc:format>
        <dc:type
           rdf:resource="http://purl.org/dc/dcmitype/StillImage" />
        <dc:title>Skull 00</dc:title>
        <dc:date>2010-05-06</dc:date>
        <dc:creator>
          <cc:Agent>
            <dc:title>Andreas Neudecker &lt;zapyon@gmx.net&gt;</dc:title>
          </cc:Agent>
        </dc:creator>
        <dc:rights>
          <cc:Agent>
            <dc:title>Copyright (C) 2010 by Andreas Neudecker</dc:title>
          </cc:Agent>
        </dc:rights>
        <dc:publisher>
          <cc:Agent>
            <dc:title>Andreas Neudecker</dc:title>
          </cc:Agent>
        </dc:publisher>
        <dc:identifier>skull-00</dc:identifier>
        <dc:description>Poisonous skull.</dc:description>
      </cc:Work>
    </rdf:RDF>
  </metadata>
  <g
     id="layer1"
     inkscape:label="Layer 1"
     inkscape:groupmode="layer">
    <g
       id="g6796"
       transform="matrix(-1,0,0,1,32,0)">
      <rect
         y="0"
         x="-8.8817842e-16"
         height="31.999994"
         width="32"
         id="rect5494"
         style="fill:white;fill-opacity:1;fill-rule:nonzero;stroke:none" />
      <path
         sodipodi:nodetypes="ccccc"
         id="rect3222"
         d="M 3,3 3,29 29,29 29,3 3,3 z"
         style="fill:blue;fill-opacity:1;fill-rule:nonzero;stroke:none"
         inkscape:connector-curvature="0" />
      <g
         style="fill:white;fill-opacity:1"
         id="g3228">
        <path
           style="fill:white;fill-opacity:1;fill-rule:nonzero;stroke:none"
           d="M 0,0 0,32 32,32 32,0 0,0 z M 1,1 31,1 31,31 1,31 1,1 z"
           id="rect5481"
           inkscape:connector-curvature="0" />
      </g>
      <g
         transform="translate(0.5,0)"
         id="g5616">
        <path
           sodipodi:nodetypes="cssssssssscccssccccccccsccccsccccsccccsscsc"
           id="path5600"
           transform="translate(-0.5,0)"
           d="m 10.5,5 c -1.656,0 -3,1.344 -3,3 0,1.656 1.344,3 3,3 0.414,0 0.797375,-0.09812 1.15625,-0.25 -0.04317,0.03036 -0.08603,0.06136 -0.125,0.09375 -0.01149,0.01 -0.02006,0.02091 -0.03125,0.03125 -0.09981,0.08803 -0.176132,0.199908 -0.25,0.3125 -0.01287,0.02113 -0.01941,0.04068 -0.03125,0.0625 -0.0492,0.08303 -0.123293,0.156811 -0.15625,0.25 -0.0261,0.07381 -0.01712,0.143323 -0.03125,0.21875 C 11.01909,11.78363 11.00351,11.841056 11,11.90625 L 10.3125,15.25 6.78125,14.53125 c -0.5441662,-0.149723 -1.1197607,0.02042 -1.5,0.4375 -0.3802391,0.417075 -0.5117591,1.003207 -0.3125,1.53125 0.1992593,0.528045 0.689017,0.906848 1.25,0.96875 l 5,1 c 0.8106,0.152586 1.59233,-0.377874 1.75,-1.1875 l 0.4375,-2.25 3.3125,3.3125 -3.6875,1.21875 c -0.763557,0.24056 -1.203684,1.03829 -1,1.8125 l 1,4 c 0.207107,0.811168 1.032582,1.300857 1.84375,1.09375 0.811168,-0.207107 1.300857,-1.032582 1.09375,-1.84375 L 15.3125,22 19.09375,20.71875 24.4375,26.0625 c 0.586803,0.586803 1.538197,0.586803 2.125,0 0.586803,-0.586803 0.586803,-1.538197 0,-2.125 L 16.125,13.5 l 1.96875,0 4.625,2.78125 c 0.707615,0.431472 1.631028,0.207615 2.0625,-0.5 0.431472,-0.707615 0.207615,-1.631028 -0.5,-2.0625 l -5,-3 C 19.045867,10.575463 18.775565,10.499778 18.5,10.5 l -5.6875,0 c -0.110072,-0.02287 -0.229153,-0.03376 -0.34375,-0.03125 -0.04527,0.0013 -0.08074,0.02605 -0.125,0.03125 -0.111051,0.01305 -0.212236,0.03113 -0.3125,0.0625 C 12.90713,10.038447 13.5,9.0942266 13.5,8 c 0,-1.656 -1.344,-3 -3,-3 z"
           style="fill:white;fill-opacity:1;fill-rule:nonzero;stroke:none"
           inkscape:connector-curvature="0" />
      </g>
      <path
         sodipodi:nodetypes="cccccccccc"
         id="rect2448"
         d="M 1,1 1,31 31,31 31,1 1,1 z M 2,2 30,2 30,30 2,30 2,2 z"
         style="fill:blue;fill-opacity:1;fill-rule:nonzero;stroke:none"
         inkscape:connector-curvature="0" />
    </g>
  </g>
</svg>

<?xml version="1.0" encoding="UTF-8" standalone="no"?>
<!-- Created with Inkscape (http://www.inkscape.org/) -->
<svg
   xmlns:dc="http://purl.org/dc/elements/1.1/"
   xmlns:cc="http://creativecommons.org/ns#"
   xmlns:rdf="http://www.w3.org/1999/02/22-rdf-syntax-ns#"
   xmlns:svg="http://www.w3.org/2000/svg"
   xmlns="http://www.w3.org/2000/svg"
   xmlns:sodipodi="http://sodipodi.sourceforge.net/DTD/sodipodi-0.dtd"
   xmlns:inkscape="http://www.inkscape.org/namespaces/inkscape"
   width="32px"
   height="32px"
   id="svg3505"
   sodipodi:version="0.32"
   inkscape:version="0.46"
   sodipodi:docname="field-speed-default-00.svg"
   inkscape:output_extension="org.inkscape.output.svg.inkscape">
  <defs
     id="defs3507">
    <inkscape:perspective
       sodipodi:type="inkscape:persp3d"
       inkscape:vp_x="0 : 16 : 1"
       inkscape:vp_y="0 : 1000 : 0"
       inkscape:vp_z="32 : 16 : 1"
       inkscape:persp3d-origin="16 : 10.666667 : 1"
       id="perspective3513" />
    <inkscape:perspective
       id="perspective4690"
       inkscape:persp3d-origin="372.04724 : 350.78739 : 1"
       inkscape:vp_z="744.09448 : 526.18109 : 1"
       inkscape:vp_y="0 : 1000 : 0"
       inkscape:vp_x="0 : 526.18109 : 1"
       sodipodi:type="inkscape:persp3d" />
    <inkscape:perspective
       id="perspective2415"
       inkscape:persp3d-origin="372.04724 : 350.78739 : 1"
       inkscape:vp_z="744.09448 : 526.18109 : 1"
       inkscape:vp_y="0 : 1000 : 0"
       inkscape:vp_x="0 : 526.18109 : 1"
       sodipodi:type="inkscape:persp3d" />
    <inkscape:perspective
       id="perspective5551"
       inkscape:persp3d-origin="372.04724 : 350.78739 : 1"
       inkscape:vp_z="744.09448 : 526.18109 : 1"
       inkscape:vp_y="0 : 1000 : 0"
       inkscape:vp_x="0 : 526.18109 : 1"
       sodipodi:type="inkscape:persp3d" />
    <inkscape:perspective
       id="perspective5594"
       inkscape:persp3d-origin="372.04724 : 350.78739 : 1"
       inkscape:vp_z="744.09448 : 526.18109 : 1"
       inkscape:vp_y="0 : 1000 : 0"
       inkscape:vp_x="0 : 526.18109 : 1"
       sodipodi:type="inkscape:persp3d" />
  </defs>
  <sodipodi:namedview
     id="base"
     pagecolor="#ffffff"
     bordercolor="#666666"
     borderopacity="1.0"
     inkscape:pageopacity="0.0"
     inkscape:pageshadow="2"
     inkscape:zoom="14.375"
     inkscape:cx="16"
     inkscape:cy="16"
     inkscape:current-layer="layer1"
     showgrid="true"
     inkscape:grid-bbox="true"
     inkscape:document-units="px"
     objecttolerance="4"
     gridtolerance="4"
     guidetolerance="4"
     inkscape:window-width="641"
     inkscape:window-height="678"
     inkscape:window-x="0"
     inkscape:window-y="37"
     inkscape:object-paths="true"
     inkscape:object-nodes="true"
     inkscape:snap-bbox="true"
     inkscape:snap-guide="true"
     showguides="true"
     inkscape:guide-bbox="true">
    <inkscape:grid
       type="xygrid"
       id="grid3515"
       units="px"
       visible="true"
       enabled="true"
       spacingx="1px"
       spacingy="1px" />
    <sodipodi:guide
       orientation="1,0"
       position="15.5,14.451495"
       id="guide3315" />
    <sodipodi:guide
       orientation="1,0"
       position="16.5,14.18633"
       id="guide3317" />
  </sodipodi:namedview>
  <metadata
     id="metadata3510">
    <rdf:RDF>
      <cc:Work
         rdf:about="">
        <dc:format>image/svg+xml</dc:format>
        <dc:type
           rdf:resource="http://purl.org/dc/dcmitype/StillImage" />
        <dc:title>Skull 00</dc:title>
        <dc:date>2010-05-06</dc:date>
        <dc:creator>
          <cc:Agent>
            <dc:title>Andreas Neudecker &lt;zapyon@gmx.net&gt;</dc:title>
          </cc:Agent>
        </dc:creator>
        <dc:rights>
          <cc:Agent>
            <dc:title>Copyright (C) 2010 by Andreas Neudecker</dc:title>
          </cc:Agent>
        </dc:rights>
        <dc:publisher>
          <cc:Agent>
            <dc:title>Andreas Neudecker</dc:title>
          </cc:Agent>
        </dc:publisher>
        <dc:identifier>skull-00</dc:identifier>
        <dc:description>Poisonous skull.</dc:description>
      </cc:Work>
    </rdf:RDF>
  </metadata>
  <g
     id="layer1"
     inkscape:label="Layer 1"
     inkscape:groupmode="layer">
    <g
       id="g4638">
      <rect
         y="0"
         x="-8.8817842e-16"
         height="31.999994"
         width="32"
         id="rect5494"
         style="fill:#ffffff;fill-opacity:1;fill-rule:nonzero;stroke:none;stroke-width:2;stroke-linecap:butt;stroke-linejoin:miter;stroke-miterlimit:4;stroke-dasharray:none;stroke-dashoffset:0;stroke-opacity:1" />
      <path
         sodipodi:nodetypes="ccccc"
         id="rect3222"
         d="M 3,3 L 3,29 L 29,29 L 29,3 L 3,3 z"
         style="opacity:1;fill:#0000ff;fill-opacity:1;fill-rule:nonzero;stroke:none;stroke-width:4;stroke-linecap:round;stroke-linejoin:round;stroke-miterlimit:4;stroke-dasharray:none;stroke-dashoffset:0;stroke-opacity:1" />
      <g
         id="g3228">
        <path
           style="fill:#ffffff;fill-opacity:1;fill-rule:nonzero;stroke:none;stroke-width:2;stroke-linecap:butt;stroke-linejoin:miter;stroke-miterlimit:4;stroke-dasharray:none;stroke-dashoffset:0;stroke-opacity:1"
           d="M 0,0 L 0,32 L 32,32 L 32,0 L 0,0 z M 1,1 L 31,1 L 31,31 L 1,31 L 1,1 z"
           id="rect5481" />
      </g>
      <g
         transform="translate(0.5,0)"
         id="g5616">
        <path
           sodipodi:nodetypes="cssssssssscccssccccccccsccccsccccsccccsscsc"
           id="path5600"
           transform="translate(-0.5,0)"
           d="M 10.5,5 C 8.844,5 7.5,6.344 7.5,8 C 7.5,9.656 8.844,11 10.5,11 C 10.914,11 11.297375,10.901875 11.65625,10.75 C 11.613078,10.78036 11.57022,10.811362 11.53125,10.84375 C 11.519756,10.853745 11.511186,10.86466 11.5,10.875 C 11.40019,10.963028 11.323868,11.074908 11.25,11.1875 C 11.237134,11.208626 11.230594,11.228179 11.21875,11.25 C 11.169547,11.333032 11.095457,11.406811 11.0625,11.5 C 11.036398,11.573805 11.045383,11.643323 11.03125,11.71875 C 11.019093,11.783633 11.003506,11.841056 11,11.90625 L 10.3125,15.25 L 6.78125,14.53125 C 6.2370838,14.381527 5.6614893,14.551674 5.28125,14.96875 C 4.9010109,15.385825 4.7694909,15.971957 4.96875,16.5 C 5.1680093,17.028045 5.657767,17.406848 6.21875,17.46875 L 11.21875,18.46875 C 12.02935,18.621336 12.81108,18.090876 12.96875,17.28125 L 13.40625,15.03125 L 16.71875,18.34375 L 13.03125,19.5625 C 12.267693,19.80306 11.827566,20.60079 12.03125,21.375 L 13.03125,25.375 C 13.238357,26.186168 14.063832,26.675857 14.875,26.46875 C 15.686168,26.261643 16.175857,25.436168 15.96875,24.625 L 15.3125,22 L 19.09375,20.71875 L 24.4375,26.0625 C 25.024303,26.649303 25.975697,26.649303 26.5625,26.0625 C 27.149303,25.475697 27.149303,24.524303 26.5625,23.9375 L 16.125,13.5 L 18.09375,13.5 L 22.71875,16.28125 C 23.426365,16.712722 24.349778,16.488865 24.78125,15.78125 C 25.212722,15.073635 24.988865,14.150222 24.28125,13.71875 L 19.28125,10.71875 C 19.045867,10.575463 18.775565,10.499778 18.5,10.5 L 12.8125,10.5 C 12.702428,10.477127 12.583347,10.466244 12.46875,10.46875 C 12.423482,10.47001 12.388014,10.494796 12.34375,10.5 C 12.232699,10.513054 12.131514,10.531127 12.03125,10.5625 C 12.90713,10.038447 13.5,9.0942266 13.5,8 C 13.5,6.344 12.156,5 10.5,5 z"
           style="opacity:1;fill:#ffffff;fill-opacity:1;fill-rule:nonzero;stroke:none;stroke-width:2;stroke-linecap:butt;stroke-linejoin:miter;stroke-miterlimit:4;stroke-dasharray:none;stroke-dashoffset:0;stroke-opacity:1" />
      </g>
      <path
         sodipodi:nodetypes="cccccccccc"
         id="rect2448"
         d="M 1,1 L 1,31 L 31,31 L 31,1 L 1,1 z M 2,2 L 30,2 L 30,30 L 2,30 L 2,2 z"
         style="opacity:1;fill:#0000ff;fill-opacity:1;fill-rule:nonzero;stroke:none;stroke-width:4;stroke-linecap:round;stroke-linejoin:round;stroke-miterlimit:4;stroke-dasharray:none;stroke-dashoffset:0;stroke-opacity:1" />
    </g>
  </g>
</svg>
